source/img/svg/icon-email.svg

<svg width="20" height="20" viewBox="0 0 20 20" fill="none" xmlns="http://www.w3.org/2000/svg">
<path d="M1.50034 8.5V16.5H18.5041V8.5M1.50034 3.5H18.5041V5.5L10.0022 11.5L1.50034 5.5V3.5Z" stroke="black" stroke-linecap="round" stroke-linejoin="round"/>
</svg>

<svg viewBox="0 0 20 20" xmlns="http://www.w3.org/2000/svg">
    <path stroke-linecap="round" stroke-linejoin="round" d="M1.5 8.5v8h17v-8m-17-5h17v2l-8.5 6-8.5-6v-2Z"/>
</svg>
